icons/1_Primary/IBM.svg

<svg xmlns="http://www.w3.org/2000/svg" viewBox="0 0 1024 1024">
   <circle cx="512" cy="512" r="512" style="fill:#0f62fe"/>
   <path d="M223.9 611.5h112v16h-112v-16zm0-30.8h112v16.1h-112v-16.1zm31.9-30.7h48.1v16.1h-48.1V550zm0-30.7h48.1v16.1h-48.1v-16.1zm0-30.7h48.1v16.1h-48.1v-16.1zm0-30.8h48.1v16.1h-48.1v-16.1zm-31.9-30.7h112v16.1h-112v-16.1zm0-30.7h112v16.1h-112v-16.1zm128 200.4h172.3c2.9-4.9 5.1-10.4 6.4-16.1H351.9v16.1zm158.9-77.5H384v16.1h140.3c-3.6-6.1-8.1-11.5-13.5-16.1zm-126.9-30.7v16.1h126.9c5.3-4.5 9.8-9.9 13.4-16.1H383.9zm140.3-61.5H351.9v16.1h178.7c-1.4-5.6-3.6-11-6.4-16.1zm-52.9-30.7H351.9v16.1h160.5c-11.2-10.3-25.9-16.1-41.1-16.1zm-87.4 61.4h48v16.1h-48v-16.1zm96.1 16.1h50.2c1.4-5.1 2.2-10.6 2.2-16.1H480v16.1zM383.9 550h48v16.1h-48V550zm96.1 0v16.1h52.4c0-5.5-.7-11-2.2-16.1H480zm-128.1 77.4 119.3.2c16 0 30.4-6.2 41.2-16.1H351.9v15.9zM544 611.5h80v16h-80v-16zm0-30.8h80v16.1h-80v-16.1zm32-30.7h48v16.1h-48V550zm0-30.7h48v16.1h-48v-16.1zm70.3-92.2H544v16.1h107.8l-5.5-16.1zm-10.6-30.7H544v16.1h97.2l-5.5-16.1zM720 611.5h80.1v16H720v-16zm0-30.8h80.1v16.1H720v-16.1zm0-30.7h48v16.1h-48V550zm0-30.7h48v16.1h-48v-16.1zm0-14.6h48v-16.1h-91.5l-4.5 13-4.5-13H576v16.1h48v-14.8l5.1 14.8h85.8l5.1-14.8v14.8zm48.1-46.9h-80.9l-5.5 16.1h86.4v-16.1zm-59.6-61.4-5.5 16.1h97.2v-16.1h-91.7zm-36.5 231 5.5-15.9h-11.1l5.6 15.9zm-10.6-30.6h21.2l5.7-16.1h-32.6l5.7 16.1zm-10.8-30.7h42.8L699 550h-54l5.6 16.1zm-10.7-30.7h64.3l5.5-16.1h-75.3l5.5 16.1zM576 473.9h86.5l-5.5-16.1h-81v16.1zm116.3-30.7h107.8v-16.1H697.8l-5.5 16.1zm0 0" style="fill:#fff"/>
</svg>

<svg width="1024" height="1024" viewBox="0 0 1024 1024" fill="none" xmlns="http://www.w3.org/2000/svg">
<g clip-path="url(#clip0_2_2475)">
<path d="M512 1024C794.77 1024 1024 794.77 1024 512C1024 229.23 794.77 0 512 0C229.23 0 0 229.23 0 512C0 794.77 229.23 1024 512 1024Z" fill="#728DBE"/>
<path d="M223.9 611.5H335.9V627.5H223.9V611.5ZM223.9 580.7H335.9V596.8H223.9V580.7ZM255.8 550H303.9V566.1H255.8V550ZM255.8 519.3H303.9V535.4H255.8V519.3ZM255.8 488.6H303.9V504.7H255.8V488.6ZM255.8 457.8H303.9V473.9H255.8V457.8ZM223.9 427.1H335.9V443.2H223.9V427.1ZM223.9 396.4H335.9V412.5H223.9V396.4ZM351.9 596.8H524.2C527.1 591.9 529.3 586.4 530.6 580.7H351.9V596.8ZM510.8 519.3H384V535.4H524.3C520.7 529.3 516.2 523.9 510.8 519.3ZM383.9 488.6V504.7H510.8C516.1 500.2 520.6 494.8 524.2 488.6H383.9ZM524.2 427.1H351.9V443.2H530.6C529.2 437.6 527 432.2 524.2 427.1ZM471.3 396.4H351.9V412.5H512.4C501.2 402.2 486.5 396.4 471.3 396.4ZM383.9 457.8H431.9V473.9H383.9V457.8ZM480 473.9H530.2C531.6 468.8 532.4 463.3 532.4 457.8H480V473.9ZM383.9 550H431.9V566.1H383.9V550ZM480 550V566.1H532.4C532.4 560.6 531.7 555.1 530.2 550H480ZM351.9 627.4L471.2 627.6C487.2 627.6 501.6 621.4 512.4 611.5H351.9V627.4ZM544 611.5H624V627.5H544V611.5ZM544 580.7H624V596.8H544V580.7ZM576 550H624V566.1H576V550ZM576 519.3H624V535.4H576V519.3ZM646.3 427.1H544V443.2H651.8L646.3 427.1ZM635.7 396.4H544V412.5H641.2L635.7 396.4ZM720 611.5H800.1V627.5H720V611.5ZM720 580.7H800.1V596.8H720V580.7ZM720 550H768V566.1H720V550ZM720 519.3H768V535.4H720V519.3ZM720 504.7H768V488.6H676.5L672 501.6L667.5 488.6H576V504.7H624V489.9L629.1 504.7H714.9L720 489.9V504.7ZM768.1 457.8H687.2L681.7 473.9H768.1V457.8ZM708.5 396.4L703 412.5H800.2V396.4H708.5ZM672 627.4L677.5 611.5H666.4L672 627.4ZM661.4 596.8H682.6L688.3 580.7H655.7L661.4 596.8ZM650.6 566.1H693.4L699 550H645L650.6 566.1ZM639.9 535.4H704.2L709.7 519.3H634.4L639.9 535.4ZM576 473.9H662.5L657 457.8H576V473.9ZM692.3 443.2H800.1V427.1H697.8L692.3 443.2Z" fill="white"/>
</g>
<defs>
<clipPath id="clip0_2_2475">
<rect width="1024" height="1024" fill="white"/>
</clipPath>
</defs>
</svg>
